resources/assets/components/pages/AccountPage/Badges/SignupBadgeLocked.svg

<?xml version="1.0" encoding="UTF-8"?>
<svg width="108px" height="108px" viewBox="0 0 108 108" version="1.1" xmlns="http://www.w3.org/2000/svg" xmlns:xlink="http://www.w3.org/1999/xlink">
    <!-- Generator: Sketch 55.1 (78136) - https://sketchapp.com -->
    <title>Badge / Inactive / Action x 1 Copy</title>
    <desc>Created with Sketch.</desc>
    <g id="Badge-/-Inactive-/-Action-x-1-Copy" stroke="none" stroke-width="1" fill="none" fill-rule="evenodd">
        <g id="Campaign-Signup">
            <g id="Layer_1">
                <ellipse id="Oval" fill="#E7E7E7" fill-rule="nonzero" cx="53.7511521" cy="53.6094675" rx="53.7511521" ry="53.6094675"></ellipse>
                <path d="M83.6915392,40.201144 C83.674994,39.9275727 83.4392778,39.7191426 83.164977,39.7355358 L78.84,39.9986193 L54.1871336,15.4772518 C53.7828045,15.0733206 53.2835441,14.7767383 52.7348571,14.6145365 C52.1257614,14.1580275 51.2842756,14.1698654 50.6883318,14.6433268 C50.1200911,14.8277418 49.6103719,15.157758 49.2101751,15.600355 L23.9620645,43.3333268 L17.4999816,43.7304339 C17.2256872,43.7469355 17.0167063,43.9820303 17.0331429,44.2556082 L19.6301198,86.7579882 C19.646665,87.0315595 19.8823812,87.2399895 20.156682,87.2235963 L85.8216774,83.2326693 C86.0959717,83.2161678 86.3049527,82.9810729 86.2885161,82.7074951 L83.6915392,40.201144 Z M50.2294562,16.6923997 C50.5041843,17.2433859 50.5917788,15.4276134 51.2507281,15.4276134 C51.9265991,15.4276134 52.5138802,15.9666864 53.2534562,16.6487179 L76.8442396,40.119737 L26.0971797,43.2042669 L50.2294562,16.6923997 Z M19.5684055,47.7521368 C19.5684055,46.7898868 20.3505249,46.0098291 21.315318,46.0098291 C21.3818449,46.0101989 21.4483024,46.0141758 21.5143963,46.0217423 L21.379023,46.1696647 C21.199791,46.3666904 21.1395635,46.6441169 21.2210277,46.8974401 C21.3024919,47.1507634 21.5132715,47.3414976 21.7739678,47.3977952 C22.0346641,47.4540927 22.3056711,47.3674005 22.4849032,47.1703748 L21.9264885,47.9755095 C22.0947097,48.2435569 23.0652166,47.4126101 23.0652166,47.7521368 C23.0652166,48.7143867 22.2830972,49.4944444 21.3183041,49.4944444 C20.353511,49.4944444 19.5713917,48.7143867 19.5713917,47.7521368 L19.5684055,47.7521368 Z" id="Shape" fill="#F3F3F3" fill-rule="nonzero"></path>
                <path d="M85.2552995,37.75 L19.5903041,41.740927 C19.3160098,41.7574286 19.1070289,41.9925234 19.1234654,42.2661012 L21.7204424,84.7724523 C21.7369875,85.0460236 21.9727038,85.2544537 22.2470046,85.2380605 L87.912,81.2471335 C88.1862943,81.2306319 88.3952752,80.9955371 88.3788387,80.7219592 L85.7818618,38.2156082 C85.7653166,37.9420368 85.5296004,37.7336068 85.2552995,37.75 Z M23.4056406,47.5128797 C22.4413663,47.5128797 21.6594641,46.7336249 21.6587326,45.7718927 C21.6580022,44.8101605 22.4387191,44.0297268 23.4029922,44.0282643 C24.3672654,44.0268058 25.1503552,44.8048709 25.1525575,45.7666009 C25.1536105,46.2293773 24.9700283,46.6735609 24.642304,47.0011664 C24.3145797,47.3287718 23.8696412,47.5128797 23.4056406,47.5128797 L23.4056406,47.5128797 Z M82.2850507,43.067265 C81.3202576,43.067265 80.5381382,42.2872072 80.5381382,41.3249573 C80.5381382,40.3627073 81.3202576,39.5826496 82.2850507,39.5826496 C83.2498438,39.5826496 84.0319631,40.3627073 84.0319631,41.3249573 C84.0319631,41.787046 83.847914,42.2302088 83.5203043,42.5569548 C83.1926947,42.8837009 82.7483607,43.067265 82.2850507,43.067265 Z" id="Shape" fill="#FFFFFF" fill-rule="nonzero"></path>
                <path d="M24.0197972,44.688455 L51.8529401,14.1112032 C52.3474677,13.5669085 53.0438854,13.2483084 53.7801113,13.2295527 C54.5163372,13.210797 55.228155,13.4935217 55.7498986,14.0119264 L81.8928664,40.0224458" id="Path" stroke="#F7F7F7" stroke-width="1.49308756" stroke-linecap="round" stroke-linejoin="round"></path>
                <ellipse id="Oval" fill="#FFFFFF" fill-rule="nonzero" cx="53.8208295" cy="13.9642735" rx="1.67723502" ry="1.67281394"></ellipse>
            </g>
            <g id="Layer_2" fill="#DDDDDD" fill-rule="nonzero">
                <path d="M53.7511521,5.6586745 C76.6176795,5.67583373 96.3102812,21.7490795 100.850166,44.1013371 C105.39005,66.4535946 93.5217061,88.903318 72.4645161,97.7945891 C47.9972532,108.102452 19.7843596,96.6762726 9.44925412,72.273504 C-0.885851361,47.8707354 10.5705254,19.732209 35.037788,9.42434583 C40.9580295,6.92622845 47.3228784,5.64547125 53.7511521,5.6586745 L53.7511521,5.6586745 Z M53.7511521,0 C24.0655853,0 0,24.0021499 0,53.6094675 C0,83.216785 24.0655853,107.218935 53.7511521,107.218935 C83.4367189,107.218935 107.502304,83.216785 107.502304,53.6094675 C107.502304,24.0021499 83.4367189,0 53.7511521,0 Z" id="Shape"></path>
            </g>
        </g>
    </g>
</svg>

<svg id="Layer_1" data-name="Layer 1" xmlns="http://www.w3.org/2000/svg" viewBox="0 0 108 108"><defs><style>.cls-1{fill:#e7e7e7;}.cls-2{fill:#f3f3f3;}.cls-3{fill:#fff;}.cls-4{fill:none;stroke:#f7f7f7;stroke-linecap:round;stroke-linejoin:round;stroke-width:1.49px;}.cls-5{fill:#ddd;}</style></defs><title>Campaign Signup Locked</title><g id="Campaign-Signup"><ellipse id="Oval" class="cls-1" cx="53.75" cy="53.61" rx="53.75" ry="53.61"/><path id="Shape" class="cls-2" d="M83.69,40.2a.49.49,0,0,0-.53-.46L78.84,40,54.19,15.48a3.52,3.52,0,0,0-1.46-.87,1.68,1.68,0,0,0-2,0,3.49,3.49,0,0,0-1.48,1L24,43.33l-6.46.4a.51.51,0,0,0-.47.53l2.6,42.5a.49.49,0,0,0,.53.46l65.66-4a.49.49,0,0,0,.47-.52ZM50.23,16.69c.27.55.36-1.26,1-1.26s1.26.54,2,1.22L76.84,40.12,26.1,43.2ZM19.57,47.75A1.74,1.74,0,0,1,21.32,46h.19l-.13.15a.74.74,0,1,0,1.1,1l-.55.81c.16.26,1.14-.57,1.14-.23a1.75,1.75,0,0,1-3.5,0Z"/><path class="cls-3" d="M85.26,37.75l-65.67,4a.51.51,0,0,0-.47.53l2.6,42.5a.5.5,0,0,0,.53.47l65.66-4a.5.5,0,0,0,.47-.53l-2.6-42.5A.49.49,0,0,0,85.26,37.75ZM23.41,47.51A1.74,1.74,0,1,1,24.64,47a1.74,1.74,0,0,1-1.23.51Zm58.88-4.44a1.74,1.74,0,1,1,1.23-.51A1.78,1.78,0,0,1,82.29,43.07Z"/><path id="Path" class="cls-4" d="M24,44.69,51.85,14.11a2.73,2.73,0,0,1,1.93-.88,2.68,2.68,0,0,1,2,.78L81.89,40"/><ellipse class="cls-3" cx="53.82" cy="13.96" rx="1.68" ry="1.67"/><path class="cls-5" d="M53.75,5.66A48,48,0,1,1,35,9.42,48.06,48.06,0,0,1,53.75,5.66Zm0-5.66A53.61,53.61,0,1,0,107.5,53.61,53.68,53.68,0,0,0,53.75,0Z"/></g></svg>
